symbols/web/list_alt/materialsymbolsrounded/list_alt_wght500_24px.svg

<svg xmlns="http://www.w3.org/2000/svg" height="24" width="24"><path d="M5.075 21.2q-.95 0-1.612-.662-.663-.663-.663-1.613V5.075q0-.95.663-1.613.662-.662 1.612-.662h13.85q.95 0 1.613.662.662.663.662 1.613v13.85q0 .95-.662 1.613-.663.662-1.613.662Zm0-2.275h13.85V5.075H5.075v13.85ZM8 16.975q.425 0 .713-.287Q9 16.4 9 15.975t-.287-.713q-.288-.287-.713-.287t-.713.287Q7 15.55 7 15.975t.287.713q.288.287.713.287ZM8 13q.425 0 .713-.288Q9 12.425 9 12t-.287-.713Q8.425 11 8 11t-.713.287Q7 11.575 7 12t.287.712Q7.575 13 8 13Zm0-3.975q.425 0 .713-.288Q9 8.45 9 8.025t-.287-.713Q8.425 7.025 8 7.025t-.713.287Q7 7.6 7 8.025t.287.712q.288.288.713.288Zm4 7.95h4q.425 0 .712-.287.288-.288.288-.713t-.288-.713q-.287-.287-.712-.287h-4q-.425 0-.712.287-.288.288-.288.713t.288.713q.287.287.712.287ZM12 13h4q.425 0 .712-.288Q17 12.425 17 12t-.288-.713Q16.425 11 16 11h-4q-.425 0-.712.287Q11 11.575 11 12t.288.712Q11.575 13 12 13Zm0-3.975h4q.425 0 .712-.288Q17 8.45 17 8.025t-.288-.713q-.287-.287-.712-.287h-4q-.425 0-.712.287Q11 7.6 11 8.025t.288.712q.287.288.712.288Zm-6.925 9.9V5.075v13.85Z"/></svg>

<svg xmlns="http://www.w3.org/2000/svg" height="24" width="24"><path d="M5.075 21.2Q4.125 21.2 3.463 20.538Q2.8 19.875 2.8 18.925V5.075Q2.8 4.125 3.463 3.462Q4.125 2.8 5.075 2.8H18.925Q19.875 2.8 20.538 3.462Q21.2 4.125 21.2 5.075V18.925Q21.2 19.875 20.538 20.538Q19.875 21.2 18.925 21.2ZM5.075 18.925H18.925Q18.925 18.925 18.925 18.925Q18.925 18.925 18.925 18.925V5.075Q18.925 5.075 18.925 5.075Q18.925 5.075 18.925 5.075H5.075Q5.075 5.075 5.075 5.075Q5.075 5.075 5.075 5.075V18.925Q5.075 18.925 5.075 18.925Q5.075 18.925 5.075 18.925ZM8 16.975Q8.425 16.975 8.713 16.688Q9 16.4 9 15.975Q9 15.55 8.713 15.262Q8.425 14.975 8 14.975Q7.575 14.975 7.287 15.262Q7 15.55 7 15.975Q7 16.4 7.287 16.688Q7.575 16.975 8 16.975ZM8 13Q8.425 13 8.713 12.712Q9 12.425 9 12Q9 11.575 8.713 11.287Q8.425 11 8 11Q7.575 11 7.287 11.287Q7 11.575 7 12Q7 12.425 7.287 12.712Q7.575 13 8 13ZM8 9.025Q8.425 9.025 8.713 8.737Q9 8.45 9 8.025Q9 7.6 8.713 7.312Q8.425 7.025 8 7.025Q7.575 7.025 7.287 7.312Q7 7.6 7 8.025Q7 8.45 7.287 8.737Q7.575 9.025 8 9.025ZM12 16.975H16Q16.425 16.975 16.712 16.688Q17 16.4 17 15.975Q17 15.55 16.712 15.262Q16.425 14.975 16 14.975H12Q11.575 14.975 11.288 15.262Q11 15.55 11 15.975Q11 16.4 11.288 16.688Q11.575 16.975 12 16.975ZM12 13H16Q16.425 13 16.712 12.712Q17 12.425 17 12Q17 11.575 16.712 11.287Q16.425 11 16 11H12Q11.575 11 11.288 11.287Q11 11.575 11 12Q11 12.425 11.288 12.712Q11.575 13 12 13ZM12 9.025H16Q16.425 9.025 16.712 8.737Q17 8.45 17 8.025Q17 7.6 16.712 7.312Q16.425 7.025 16 7.025H12Q11.575 7.025 11.288 7.312Q11 7.6 11 8.025Q11 8.45 11.288 8.737Q11.575 9.025 12 9.025ZM5.075 18.925Q5.075 18.925 5.075 18.925Q5.075 18.925 5.075 18.925V5.075Q5.075 5.075 5.075 5.075Q5.075 5.075 5.075 5.075Q5.075 5.075 5.075 5.075Q5.075 5.075 5.075 5.075V18.925Q5.075 18.925 5.075 18.925Q5.075 18.925 5.075 18.925Z"/></svg>
